X:116
T:Market Town
M:6/8
R:Jig
Z:Transcribed by Luisa
K:A
~E3 ECE|EFA A2f|edc Bcd|cBA ~F3|\
~E3 ECE|EFA A2f|edc BAB|1 cAA AGF :|2 cAA Acd|:\
"B"~e2e ece|f2g a2f|edc Bcd|cBA ~F3|\
e2e ece|f2g a2f|edc Bcd|cAA A3||\
"C"~e2e ece|f2g a2f|edc Bcd|cBA ~F3|\
~E3 ECE|EFA A2f|edc BAB|cAA A3||\
"D"~e2e ece|f2g a2f|edc Bcd|cBA ~F3|\
Ace def|cde fga|edc Bcd|cAA A3||
